assets/img/icons/icon_upwork.svg

<svg width="25" height="25" viewBox="0 0 25 25" fill="none" xmlns="http://www.w3.org/2000/svg">
<path d="M0.5 4.5C0.224 4.5 0 4.724 0 5V12.0576C0 15.1381 2.34149 17.8157 5.41699 17.9902C8.36549 18.1572 10.8739 16.0882 11.3984 13.3252C11.6834 13.7102 11.9731 14.068 12.2656 14.3965L10.501 21.8857C10.4665 22.0347 10.5012 22.19 10.5957 22.3105C10.6912 22.4295 10.8353 22.5 10.9883 22.5H13.5479C13.7799 22.5 13.9797 22.3437 14.0332 22.1182C14.3437 20.8077 14.8305 18.7541 15.2715 16.8926L15.7266 17.1562C16.8091 17.7168 17.9075 18 19 18C22.596 18 25.463 14.8205 24.9375 11.125C24.5895 8.677 22.707 6.65917 20.29 6.13867C17.4755 5.53217 14.7627 6.97457 13.5967 9.37207C13.5967 9.37207 13.4673 9.65929 13.3633 9.94629C12.5383 8.52329 12.0538 7.04704 11.7998 5.97754C11.7073 5.58754 11.5687 4.88144 11.5527 4.83594C11.4832 4.63444 11.2946 4.5 11.0811 4.5H8.5C8.224 4.5 8 4.724 8 5V12.1504C8 13.3249 7.14361 14.3753 5.97461 14.4893C4.63361 14.6203 3.5 13.565 3.5 12.25V5C3.5 4.724 3.276 4.5 3 4.5H0.5ZM19 9.5C20.3785 9.5 21.5 10.6215 21.5 12C21.5 13.3785 20.3785 14.5 19 14.5C17.8875 14.5 16.8568 13.8291 16.1348 13.2441C16.3983 12.1316 16.5751 11.3865 16.5781 11.374C16.8621 10.2705 17.8585 9.5 19 9.5Z" fill="#FFD600"/>
</svg>

<svg width="25" height="25" fill="none" xmlns="http://www.w3.org/2000/svg"><path d="M.5 4.5A.5.5 0 000 5v7.058c0 3.08 2.341 5.758 5.417 5.932a5.758 5.758 0 005.981-4.665c.285.385.575.743.868 1.072L10.5 21.886a.503.503 0 00.487.614h2.56a.496.496 0 00.485-.382l1.239-5.225.455.263c1.082.56 2.18.844 3.273.844a6.007 6.007 0 005.938-6.875c-.348-2.448-2.231-4.466-4.648-4.986a6.023 6.023 0 00-6.693 3.233s-.13.287-.234.574c-.825-1.423-1.31-2.899-1.563-3.968-.093-.39-.231-1.097-.247-1.142a.498.498 0 00-.472-.336H8.5A.5.5 0 008 5v7.15c0 1.175-.856 2.225-2.025 2.34A2.252 2.252 0 013.5 12.25V5a.5.5 0 00-.5-.5H.5zm18.5 5c1.378 0 2.5 1.121 2.5 2.5s-1.122 2.5-2.5 2.5c-1.113 0-2.143-.67-2.865-1.256l.443-1.87A2.499 2.499 0 0119 9.5z" fill="#FFD600"/></svg>
